X:1
T:The Bible in the Cabin by the Sea
T:The Bible in the Cabin by the Sea
T:Winston Cornelius Hafley
T:Winston Cornelius Hafley, 1900
T:Public Domain Courtesy of the Cyber Hymnal™
T:Public Domain Courtesy of the Cyber Hymnal™
C:Winston Cornelius Hafley
Z:Public Domain
Z:Courtesy of the Cyber Hymnal™
%%score ( 1 2 ) ( 3 4 )
L:1/8
Q:1/4=93
M:4/4
K:Ab
V:1 treble 
V:2 treble 
V:3 bass 
V:4 bass 
V:1
 [CE]2 | [Ec][Ec][Ec][Ec] [EA]/[EA]/ z ([EA][EA]) | [DF]>[EG] [FA]>[DF] [CE]2 ([CE]>[CE]) | %3
w: 1.~There|is a pre- cious vol- ume all *|fin- ger worn and old, In~the *|
w: 2.~How|oft- en I have list- ened at~the *|tem- pest howl and rave, Round~that *|
w: 3.~How|oft- en, O how oft- en, she *|read the glow- ing word, Read~a *|
w: 4.~There|is no o- ther vol- ume so *|pre- cious as this book; It *|
 [CA][CA] ([CA][CA]) [Ec][Ec] [EB]>[DA] | [EB]6 [Ec]>[Ed] | [Ae][Ae][Ec][Ec] [Ec]/[Ec]/ z [EA]2 | %6
w: lit- tle log * ca- bin by the|sea; It is|the old, old Bi- ble, more pre-|
w: lit- tle log * ca- bin by the|sea, While my|mo- ther read of Je- sus who|
w: mes- sage from~the * pre- cious word of|God; It told|of faith- ful Dan- iel who trust-|
w: tells me how * in liv- ing how|to die; It|tells me of that ci- ty, O|
 [FB][FA] [FA]>[DF] [FA]2 ([DF][DF]) | [CE]>[CE] [CE][CE] [Ec]/[Ec]/ z [DB]>[CA] | [CA]6 || %9
w: cious now than gold, ’Tis the *|Bi- ble that my mo- ther gave to|me.|
w: walked up- on the wave, How *|Je- sus calmed the storm- y Gal- i-|lee.|
w: ed in the Lord, While she *|led me in the path- way that he|trod.|
w: won- drous, won- drous book, And *|that I’ll meet the loved ones by and|by.|
"^Refrain" [CA]>[Ec] | [Fd]2 [Fd][Fd] [Fd]<[Fd] [Fd][Af] | [Ae]4 [Ec]2 [Ac][Ac] | %12
w: |||
w: |||
w: ’Tis the|old pre- cious Bi- ble, bless- èd|Bi- ble, That she|
w: |||
 [GB]2 [GB]>[GB] [F=d]<[Fd] [Ac][Ad] | ([Ge]2 [A=d]2 !fermata![B_d]2) E>E | %14
w: ||
w: ||
w: read in the ca- bin by the|sea; * * ’Tis the|
w: ||
 [Ec]2 [Ec][Ec] [EA]/[EA]/ z [EA]2 | ([DF][EG]) [FA]>[DF] [DF]<[CE] [CE]>[CE] | %16
w: ||
w: ||
w: old fa- shioned Bi- ble, the|old * pre- cious Bi- ble, ’Tis the|
w: ||
 [CA][CA][CA][CA] [Ec]/[Ec]/ z [DB]>[CA] | [CA]6 |] %18
w: ||
w: ||
w: Bi- ble that my mo- ther gave to|me.|
w: ||
V:2
 x2 | x8 | x8 | x8 | x8 | x8 | x8 | x8 | x6 || x2 | x8 | x8 | x8 | x6 E>E | x8 | x8 | x8 | x6 |] %18
V:3
 [A,,A,]2 | [A,,A,][A,,A,][A,,A,][A,,A,] [A,,C]/[A,,C]/ z ([C,A,][C,A,]) | %2
 [D,A,]>[D,A,] [D,A,]>[D,A,] [A,,A,]2 ([A,,A,]>[A,,A,]) | %3
 [A,,E,][A,,E,] ([A,,E,][A,,E,]) A,A, [G,B,]>[F,B,] | [E,G,]6 A,>[A,B,] | %5
 [A,C][A,C]A,A, A,/A,/ z [C,A,]2 | [D,A,][D,A,] [D,A,]>[D,A,] [D,A,]2 ([D,A,][D,A,]) | %7
 [E,A,]>[E,A,] [E,A,][E,A,] [E,A,]/[E,A,]/ z [E,G,]>[A,,E,] | [A,,E,]6 || [A,,A,]>[A,,A,] | %10
 [D,A,]2 [D,A,][D,A,] [D,A,]<[D,A,] [D,A,][D,D] | [A,C][A,C][A,C][A,C] [A,E]<[A,E] [F,E][F,E] | %12
 [B,E]2 [B,E]>[B,E] B,<B, [B,,B,][B,,B,] | ([E,B,]2 [F,B,]>[F,B,] !fermata![G,B,]2) [E,G,]>[E,G,] | %14
 A,2 A,A, [A,C]/[A,C]/ z [C,A,]2 | [D,A,]2 [D,A,]>[D,A,] [A,,A,]<[A,,A,] [A,,A,]>[A,,A,] | %16
 [F,A,][F,A,][F,A,][F,A,] [E,A,]/[E,A,]/ z [E,G,]>[A,,A,] | [A,,A,]6 |] %18
V:4
 x2 | x8 | x8 | x4 A,A, x2 | x6 A,3/2 x/ | x2 A,A, A,/A,/ x3 | x8 | x8 | x6 || x2 | x8 | x8 | %12
 x4 B,<B, x2 | x8 | A,2 A,A, x4 | x8 | x8 | x6 |] %18

